X:25
T: Es wohnet Lieb bei Liebe
N: L0086
O: Europa, Mitteleuropa, Deutschland
N: 1581
R: Lied
M: 3/2
L: 1/4
K: D
D2 | =F2FG2G | A2A2
A2 | =c2c_B2G | A2G2
G2 | A2AA2=c | _B2A2
A2 | G2=FA2F | E2D2
A2 | G2G=F2D | E=FG2
G2 | G2GG2A | _B2A2
A2 | G2=FA2F | E2D2

@@@ Tune index: 5429
